X: 1
T: Polska efter Bagg Lars Johansson, J\"arna
R: hambo, masurka
Z: 2001 John Chambers <jc@trillian.mit.edu>
M: 3/4
L: 1/8
K: G
|: "G"B>c d>B G>B | "D7"A>B c>A F2 \
| f>e d>c B>A |1,3 "G"B>c d>B G2 :|2,4 "G"G2 G4 :|
|: "C"g>f e3 g | "D"f>e "(G)"d3 e \
| "D7"f>e d>c B>A |1,3 "G"B>c d>B G2 :|2,4 "G"G2 G4 :|

%%sep 1 1 500

